X: 32454
T: Piss Upon The Grass
R: jig
M: 6/8
K: Gmajor
|:G2G G2B|d2B G2G|A2B A2B|A2B AFD|
G2G G2B|d2B G2B|A2G F2E|D3 D3:|
|:A2A A2B|A2B AFD|G2A B2c|d2e dBG|
c2B c2d|e2f gfe|dcB AGF|G3 G3:|

